frontend/manage/src/assets/svg/scroll-down.svg

<svg xmlns="http://www.w3.org/2000/svg" viewBox="0 0 200 200" width="200" height="200" style="width: 100%; height: 100%; transform: translate3d(0px, 0px, 0px);" preserveAspectRatio="xMidYMid meet"><defs><clipPath id="__lottie_element_210"><rect width="200" height="200" x="0" y="0"></rect></clipPath></defs><g clip-path="url(#__lottie_element_210)"><g style="display: block;" transform="matrix(0.2437162548303604,0,0,0.2437162548303604,30.90644073486328,42.50322723388672)" opacity="0.7"><path fill="#fff" fill-opacity="1" d=" M283.4639892578125,274.375 C273.343994140625,274.375 263.2250061035156,272.17498779296875 253.79800415039062,267.7760009765625 C253.79800415039062,267.7760009765625 16.750999450683594,157.16299438476562 16.750999450683594,157.16299438476562 C4.238999843597412,151.32400512695312 -1.1710000038146973,136.447998046875 4.668000221252441,123.93599700927734 C10.505999565124512,111.42400360107422 25.381999969482422,106.01499938964844 37.89400100708008,111.85399627685547 C37.89400100708008,111.85399627685547 274.9410095214844,222.46600341796875 274.9410095214844,222.46600341796875 C280.3580017089844,224.9929962158203 286.5710144042969,224.99200439453125 291.98699951171875,222.46600341796875 C291.98699951171875,222.46600341796875 529.0349731445312,111.85399627685547 529.0349731445312,111.85399627685547 C541.5469970703125,106.01399993896484 556.4219970703125,111.42400360107422 562.260986328125,123.93599700927734 C568.0989990234375,136.447998046875 562.6890258789062,151.32400512695312 550.177001953125,157.16299438476562 C550.177001953125,157.16299438476562 313.1300048828125,267.7760009765625 313.1300048828125,267.7760009765625 C303.7040100097656,272.17498779296875 293.5840148925781,274.375 283.4639892578125,274.375z"></path></g></g></svg>

<svg preserveAspectRatio="xMidYMid meet" transform="translate3d(0px, 0px, 0px)" viewBox="0 0 200 200" xmlns="http://www.w3.org/2000/svg" xmlns:xlink="http://www.w3.org/1999/xlink"><clipPath id="a"><path d="m0 0h200v200h-200z"/></clipPath><g clip-path="url(#a)"><path d="m283.46398926 274.375c-10.11999512 0-20.23898316-2.20001221-29.66598511-6.59899902 0 0-237.0470047-110.6130066-237.0470047-110.6130066-12.51199961-5.83898925-17.92199945-20.71499633-12.08299923-33.22699737 5.83799935-12.51199341 20.71399975-17.92099762 33.22600079-12.08200073 0 0 237.04700851 110.61200714 237.04700851 110.61200714 5.41699219 2.5269928 11.63000488 2.52600097 17.04598999 0 0 0 237.04797363-110.61200714 237.04797363-110.61200714 12.51202393-5.83999634 27.38702393-.42999268 33.22601319 12.08200073 5.83801269 12.51200104.42803955 27.38800812-12.08398438 33.22699737 0 0-237.04699707 110.6130066-237.04699707 110.6130066-9.42599487 4.39898681-19.54598999 6.59899902-29.66601562 6.59899902z" display="block" fill="#fff" opacity=".7" transform="matrix(.24371625 0 0 .24371625 30.906441 42.503227)"/></g></svg>
